img/svg-icons/house-alt.svg

<svg xmlns="http://www.w3.org/2000/svg" id="house-alt" viewBox="0 0 60.7 59.6"><path d="M60.6 53.2a1.09 1.09 0 0 0-.8-.8V28L30.1 0l-29 27.8 1 1.1 28-26.8 28.2 26.6v23.7a1.39 1.39 0 0 0-.7.8 1.27 1.27 0 0 0-.1.6c0 .2.1.3.1.5a1.63 1.63 0 0 0 1.5 1.1 1.5 1.5 0 0 0 1.5-1.1.9.9 0 0 0 .1-.5 1.27 1.27 0 0 0-.1-.6zM2.4 34.3a1.42 1.42 0 0 0 .8-.9v-.5a1.27 1.27 0 0 0-.1-.6 1.54 1.54 0 0 0-1.5-1 1.54 1.54 0 0 0-1.5 1 1.27 1.27 0 0 0-.1.6.9.9 0 0 0 .1.5 1.42 1.42 0 0 0 .8.9v25.3h58.8v-1.5H2.4V34.3z"/></svg>

<svg id="house-alt" xmlns="http://www.w3.org/2000/svg" width="60.7" height="59.6" viewBox="0 0 60.7 59.6"><title>house-alt</title><path d="M60.6,53.2a1.09,1.09,0,0,0-.8-0.8V28L30.1,0,1.1,27.8l1,1.1,28-26.8L58.3,28.7V52.4a1.39,1.39,0,0,0-.7.8,1.27,1.27,0,0,0-.1.6c0,0.2.1,0.3,0.1,0.5a1.63,1.63,0,0,0,1.5,1.1,1.5,1.5,0,0,0,1.5-1.1,0.9,0.9,0,0,0,.1-0.5A1.27,1.27,0,0,0,60.6,53.2Z" transform="translate(0 0)"  /><path d="M2.4,34.3a1.42,1.42,0,0,0,.8-0.9V32.9a1.27,1.27,0,0,0-.1-0.6,1.54,1.54,0,0,0-1.5-1,1.54,1.54,0,0,0-1.5,1,1.27,1.27,0,0,0-.1.6,0.9,0.9,0,0,0,.1.5,1.42,1.42,0,0,0,.8.9V59.6H59.7V58.1H2.4V34.3h0Z" transform="translate(0 0)"  /></svg>
